packages/foundations/assets/icons/functional/images/business & payment/sepa_14_filled.svg

<svg width="14" height="14" viewBox="0 0 14 14" fill="none" xmlns="http://www.w3.org/2000/svg">
<g clip-path="url(#clip0_2202_1463)">
<path fill-rule="evenodd" clip-rule="evenodd" d="M10.8571 9.27928L10.8821 9.33828L11.8121 12.1383C11.8407 12.2215 11.8368 12.3125 11.8012 12.393C11.7657 12.4735 11.7012 12.5377 11.6205 12.5727C11.5398 12.6078 11.4488 12.6111 11.3657 12.5821C11.2826 12.5532 11.2135 12.4939 11.1721 12.4163L11.1471 12.3583L10.9011 11.6183H10.1011L9.81515 12.3723C9.7861 12.4487 9.73118 12.5126 9.65993 12.5528C9.58869 12.593 9.50562 12.607 9.42515 12.5923L9.36415 12.5753C9.28768 12.5462 9.22381 12.4913 9.18362 12.4201C9.14343 12.3488 9.12947 12.2658 9.14415 12.1853L9.16115 12.1243L10.2231 9.32429C10.2468 9.26174 10.2879 9.20728 10.3415 9.16735C10.3951 9.12741 10.4591 9.10367 10.5258 9.09894C10.5924 9.09421 10.6591 9.10868 10.7178 9.14064C10.7766 9.1726 10.8249 9.22071 10.8571 9.27928ZM8.28815 9.09829C8.96115 9.09829 9.34015 9.47828 9.34015 10.1863C9.34015 10.8573 9.00815 11.2233 8.39915 11.2613L8.28915 11.2653H7.84615V12.2483C7.84613 12.33 7.81752 12.4091 7.76528 12.4719C7.71305 12.5348 7.64048 12.5773 7.56015 12.5923L7.49715 12.5983C7.41513 12.5985 7.33565 12.5698 7.2726 12.5174C7.20954 12.4649 7.16691 12.392 7.15215 12.3113L7.14715 12.2483V9.44829C7.14722 9.36644 7.17597 9.2872 7.2284 9.22435C7.28083 9.1615 7.35364 9.11902 7.43415 9.10428L7.49715 9.09829H8.28815ZM3.21615 9.09829C3.52215 9.09829 3.81715 9.16728 4.06115 9.28528C4.10427 9.30414 4.14315 9.3315 4.17545 9.36572C4.20776 9.39995 4.23283 9.44034 4.24916 9.48448C4.2655 9.52861 4.27277 9.57559 4.27053 9.6226C4.26829 9.66961 4.2566 9.71569 4.23615 9.75807C4.21569 9.80046 4.1869 9.83829 4.15149 9.86929C4.11609 9.9003 4.07479 9.92384 4.03007 9.93852C3.98535 9.95319 3.93814 9.9587 3.89124 9.95471C3.84435 9.95072 3.79874 9.93731 3.75715 9.91529C3.58763 9.83692 3.4029 9.79697 3.21615 9.79829C3.03415 9.79829 2.97815 9.84829 2.97815 9.96129C2.97815 10.0933 3.05815 10.1983 3.32715 10.3873L3.52015 10.5173C4.13215 10.9153 4.36215 11.1523 4.36215 11.6383C4.36215 12.2063 3.89115 12.5983 3.26515 12.5983C2.93315 12.5983 2.60015 12.5053 2.34015 12.3503C2.26032 12.3028 2.20262 12.2256 2.17974 12.1356C2.15686 12.0455 2.17068 11.9501 2.21815 11.8703C2.26562 11.7905 2.34286 11.7328 2.43288 11.7099C2.5229 11.687 2.61832 11.7008 2.69815 11.7483C2.85115 11.8393 3.06015 11.8983 3.26515 11.8983C3.53015 11.8983 3.66215 11.7883 3.66215 11.6383C3.66215 11.5133 3.58215 11.4103 3.31915 11.2253L3.12915 11.0973C2.51115 10.6953 2.27815 10.4553 2.27815 9.96129C2.27815 9.44229 2.66415 9.09829 3.21615 9.09829ZM6.44015 9.09829C6.52724 9.09866 6.61105 9.13149 6.67523 9.19036C6.73941 9.24923 6.77933 9.32991 6.7872 9.41664C6.79508 9.50337 6.77033 9.58992 6.71781 9.65938C6.66528 9.72885 6.58874 9.77623 6.50315 9.79228L6.44015 9.79829H5.35915V10.4313H6.18115C6.26922 10.4302 6.35446 10.4624 6.41985 10.5214C6.48523 10.5804 6.52597 10.6619 6.53392 10.7497C6.54187 10.8374 6.51646 10.9249 6.46274 10.9947C6.40903 11.0645 6.33098 11.1115 6.24415 11.1263L6.18115 11.1313H5.35915V11.8983H6.50215C6.58417 11.8981 6.66365 11.9268 6.7267 11.9792C6.78976 12.0317 6.83239 12.1046 6.84715 12.1853L6.85215 12.2483C6.85208 12.3301 6.82333 12.4094 6.7709 12.4722C6.71846 12.5351 6.64566 12.5776 6.56515 12.5923L6.50215 12.5983H5.00915C4.9273 12.5982 4.84806 12.5695 4.78521 12.517C4.72237 12.4646 4.67988 12.3918 4.66515 12.3113L4.65915 12.2483V9.44829C4.65922 9.36644 4.68797 9.2872 4.7404 9.22435C4.79283 9.1615 4.86564 9.11902 4.94615 9.10428L5.00915 9.09829H6.44015ZM8.28815 9.79829H7.84615V10.5653H8.28815C8.58315 10.5653 8.64015 10.5083 8.64015 10.1863C8.64015 9.89128 8.58515 9.81129 8.35515 9.79928L8.28915 9.79829H8.28815ZM9.78915 1.39828C10.5551 1.39828 11.1891 2.03228 11.1891 2.79828V6.28428C11.1891 7.05028 10.5551 7.68428 9.78915 7.68428H4.19915C3.82865 7.68167 3.47408 7.53333 3.21209 7.27134C2.95011 7.00936 2.80177 6.65478 2.79915 6.28428V2.79828C2.79915 2.03228 3.43315 1.39828 4.19915 1.39828H9.78915ZM7.69915 4.89828H4.19915V6.29829H7.69915V4.89828Z" fill="#1A1C1F"/>
</g>
<defs>
<clipPath id="clip0_2202_1463">
<rect width="14" height="14" fill="white"/>
</clipPath>
</defs>
</svg>

<svg xmlns="http://www.w3.org/2000/svg" width="14" height="14" fill="none"><g clip-path="url(#a)"><path fill="#1A1C1F" fill-rule="evenodd" d="m10.857 9.28.025.058.93 2.8a.35.35 0 0 1-.64.278l-.025-.058-.246-.74h-.8l-.286.754a.35.35 0 0 1-.39.22l-.06-.017a.35.35 0 0 1-.22-.39l.016-.06 1.062-2.8a.35.35 0 0 1 .634-.046m-2.569-.182c.673 0 1.052.38 1.052 1.088 0 .671-.332 1.037-.94 1.075l-.11.004h-.444v.983a.35.35 0 0 1-.286.344l-.063.006a.35.35 0 0 1-.345-.287l-.005-.063v-2.8a.35.35 0 0 1 .287-.344l.063-.006zm-5.072 0c.306 0 .601.07.845.187a.35.35 0 1 1-.304.63 1.3 1.3 0 0 0-.54-.117c-.183 0-.239.05-.239.163 0 .132.08.237.35.426l.192.13c.612.398.842.635.842 1.121 0 .568-.47.96-1.097.96-.332 0-.665-.093-.925-.248a.35.35 0 0 1 .358-.602c.153.091.362.15.567.15.265 0 .397-.11.397-.26 0-.125-.08-.228-.343-.413l-.19-.128c-.618-.402-.85-.642-.85-1.136 0-.519.385-.863.937-.863m3.224 0a.35.35 0 0 1 .063.694l-.063.006H5.36v.633h.821a.35.35 0 0 1 .063.695l-.063.005H5.36v.767h1.143a.35.35 0 0 1 .345.287l.005.063a.35.35 0 0 1-.287.344l-.063.006H5.01a.35.35 0 0 1-.344-.287l-.006-.063v-2.8a.35.35 0 0 1 .287-.344l.063-.006zm1.848.7h-.442v.767h.442c.295 0 .352-.057.352-.379 0-.295-.055-.375-.285-.387H8.29m1.501-8.4c.766 0 1.4.634 1.4 1.4v3.486c0 .766-.634 1.4-1.4 1.4H4.2a1.41 1.41 0 0 1-1.4-1.4V2.798c0-.766.634-1.4 1.4-1.4zm-2.09 3.5H4.2v1.4h3.5z" clip-rule="evenodd"/></g><defs><clipPath id="a"><path fill="#fff" d="M0 0h14v14H0z"/></clipPath></defs></svg>
